X:1     %Music
B:Patterson, D W, 1979, The Shaker Spiritual, Princeton University Press, New Jersey
Z:Daniel W Patterson
F:http://www.folkinfo.org/songs
T:Samuel Hooser's Hymn
Q:1/4=138
M:4/4     %Meter
L:1/8     %
K:D
(D3B,) |A,2 D2 E2 (DE) |F4 (FA) A2 |F2 D2 E2 D2 | [M:3/4][L:1/8] B,4
w:I_ of-ten heard of_ Shak-ers_ while in my na-tive land
 (DB,) |[M:4/4][L:1/8] A,2 D2 E2 (DE) |F4 (FA) 
w:That_ they were a de-*lud-ed_ 
M:4/4     %Meter
L:1/8     %
A2 |F2 E2 F2 (ED) | D4|
w:a blind be-witch-ed_ band
|:D4 |D2 A2 A2 (FA) |B4 d2 
w:Such aw-ful news was_ spread-ing, too 
B2 |A2 F2 A2 (BA) |[M:3/4][L:1/8]A4
w:too hor-rid to re-*late
 A2 | [M:4/4][L:1/8] F2 D2 B,2 A,2 |(D3 E) F2 
w:How wick-ed they were act-*ing 
A2 |A2 F2 {E}F2 (ED) |D4 :|
w:in the O-hi-o_ State